X:25
T:The Humours of Allegheny 
R:reel
C: 1977, 2010 L.E. McCullough  
M:4/4
K:Ador
|:~A3G ~A3d|e~g3 edBA|~G3A G~E3|D~E3 G~E3|
~A3B GABd|e~g3 aged|e~g3 e~g3|1 edBG ~A3G:|2 edBG ~A3d|]
|:~e3g edeg|a~g3 edBA|~G3A B~d3|e~g3 edBd|
~e3g edeg|~a3g aged|~G3A B~d3|1edBG ~A3d:|2edBG ~A3G|]


